images/icon/youtube-footer.svg

<svg width="24" height="24" viewBox="0 0 24 24" fill="none" xmlns="http://www.w3.org/2000/svg">
<path d="M14.397 11.7996L11.7018 10.542C11.4666 10.4328 11.2734 10.5552 11.2734 10.8156V13.1844C11.2734 13.4448 11.4666 13.5672 11.7018 13.458L14.3958 12.2004C14.6322 12.09 14.6322 11.91 14.397 11.7996ZM12.4734 0.480011C6.11097 0.480011 0.953369 5.63761 0.953369 12C0.953369 18.3624 6.11097 23.52 12.4734 23.52C18.8358 23.52 23.9934 18.3624 23.9934 12C23.9934 5.63761 18.8358 0.480011 12.4734 0.480011ZM12.4734 16.68C6.57657 16.68 6.47337 16.1484 6.47337 12C6.47337 7.85161 6.57657 7.32001 12.4734 7.32001C18.3702 7.32001 18.4734 7.85161 18.4734 12C18.4734 16.1484 18.3702 16.68 12.4734 16.68Z" fill="#9FB7D3"/>
</svg>

<svg width="24" height="24" fill="none" xmlns="http://www.w3.org/2000/svg"><path d="M14.397 11.8l-2.695-1.258c-.235-.11-.429.013-.429.274v2.368c0 .26.194.383.429.274l2.694-1.258c.236-.11.236-.29.001-.4zM12.473.48C6.111.48.953 5.638.953 12c0 6.362 5.158 11.52 11.52 11.52 6.363 0 11.52-5.158 11.52-11.52 0-6.362-5.157-11.52-11.52-11.52zm0 16.2c-5.896 0-6-.532-6-4.68s.104-4.68 6-4.68c5.897 0 6 .532 6 4.68s-.103 4.68-6 4.68z" fill="#9FB7D3"/></svg>
